X:17
T:"The Cardinal" by Elizabeth (Clark) Zekley  1990
D:The red flash.
S:Original Tune
R:Reel
O:Mendocino California
M:4/4
Q:300
F:http://larkcamp.com/meabc.txt
K:G
e ~A3 gAfA|e2 (3efg edBd|e ~A3 gAfA |(3efg ed GABd|e ~A3 gAfA|e2 (3efg a2 ga|bagb agef|~g3e dBGB:|cAEc A2 cA|B~E3 BEGB|cAEc A2 cA|BdgB c ~A3|EAcA Bdgd|ceag a2 ab|(3c'ba bg agea|1aged c ~A3:|2aged cdeg|:f~B3 aBgB|f2 (3fga fede|f ~B3 aBgB|(3fga fe cdeg|f ~B3aBgB|f2 (3fga b3 a|b ~f3 a ~f3|1gfed cdef:|2gfed B^cdf|]\
